X: 1745
T: THE MOUNTAINS OF KERRY
M:C
L:1/8
B:O'NEILL'S 1745
Z:Transcribed by A. LEE WORMAN
K:G
G2 gd edBA|G2 gd edBG|DGBG AGBG|DGBd cBAB|
G2 gd edBA|G2 gd edBd|gfgd ecAF|G2 G2 G2 z2:|
|:B3 c d2 d2|cBcd e2 e2|A3 B cBcA|Ggfa g2 g2|
dBdg eceg|fdfa gfge|dBdg ecAF|G2 G2 G2 z2:|


